lib/functional/design/align-center-vertical.svg

<svg xmlns="http://www.w3.org/2000/svg" fill="none" stroke="currentColor" aria-hidden="true" viewBox="0 0 32 32"><g id="Icon-AlignCenterVertical"><g clip-path="url(#clip0_8_1813)"><g id="size=md (32px)"><g id="AlignCenterVertical"><path id="Vector" stroke-linecap="round" stroke-linejoin="round" stroke-width="2" d="M28 16H25"/><path id="Vector_2" stroke-linecap="round" stroke-linejoin="round" stroke-width="2" d="M7 16H4"/><path id="Vector_3" stroke-linecap="round" stroke-linejoin="round" stroke-width="2" d="M18 16H14"/><path id="Vector_4" stroke-linecap="round" stroke-linejoin="round" stroke-width="2" d="M25 23V9C25 8.44772 24.5523 8 24 8H19C18.4477 8 18 8.44772 18 9V23C18 23.5523 18.4477 24 19 24H24C24.5523 24 25 23.5523 25 23Z"/><path id="Vector_5" stroke-linecap="round" stroke-linejoin="round" stroke-width="2" d="M13 5H8C7.44772 5 7 5.44772 7 6V26C7 26.5523 7.44772 27 8 27H13C13.5523 27 14 26.5523 14 26V6C14 5.44772 13.5523 5 13 5Z"/></g></g></g></g><defs><clipPath id="clip0_8_1813"><rect width="32" height="32" fill="white" rx="5"/></clipPath></defs></svg>

<svg xmlns="http://www.w3.org/2000/svg" fill="none" stroke="currentColor" aria-hidden="true" viewBox="0 0 32 32"><path stroke-linecap="round" stroke-linejoin="round" stroke-width="2" d="M28 16h-3M7 16H4m14 0h-4m11 7V9a1 1 0 0 0-1-1h-5a1 1 0 0 0-1 1v14a1 1 0 0 0 1 1h5a1 1 0 0 0 1-1ZM13 5H8a1 1 0 0 0-1 1v20a1 1 0 0 0 1 1h5a1 1 0 0 0 1-1V6a1 1 0 0 0-1-1Z"/></svg>
